X: 1938
T: Verme Gel Redd-i Niyâz ile
C: Ahmet Avni Konuk
O: Turkey
F: http://compmusic.upf.edu/node/140
N: sevkutarab--kupe--aksaksemai--verme--ahmet_avni_konuk
N: makam= sevkutarab
N: form= kupe
N: usul= aksaksemai = 10/8
M: 10/8
L: 1/16
K: C _1/4B _7/8d  
Q: 1/4=102
%%MIDI tuningsystem comma53
A2A2 _2/4B2c4_3/4d2 dc=B2 c2z2  | \
w:  Ver *  me  gel  *  *  *  redd_  | 
c4 _3/4d2d/c/d/e/ dc_2/4B2 d2cc/B/ A2z2  | 
w:  i  ni yâz  *  *  *  *  *  *  *  i  | 
AGA2 _2/4B2c2 _3/4d2e2 f_7/8agf edc2  | \
w:  le  *  *  dil_ i  *  *  *  *  zâ  | 
c_7/8ag2 f2e2 e_3/4dd/c/d/e/ dcc4z2  | 
w:  re  *  *  ke sel    | 
c4 _7/8a2g2 f2e2 _3/4d2cd c2_2/4B2  | \
w:  Nağ men_ i *  *  *  le   | 
c4 _3/4d2d2 {e}dc_2/4B3/2A/ Bdcc/B/ A2z2  | 
w:  mut rı ba  *  *  *  *  *  *  *  Şevk_  | 
A2_B2 B2B2 A2A2 G2G2 AGF2  | G_BA2 G2G2 GFEF GEF4z2  | 
w:  i  *  Ta rab  *  *  *  ver   |  bez *  *  me  gel    | 
|


